docs/class.svg

<?xml version="1.0" encoding="UTF-8" standalone="no"?>
<svg
   xmlns:osb="http://www.openswatchbook.org/uri/2009/osb"
   xmlns:dc="http://purl.org/dc/elements/1.1/"
   xmlns:cc="http://creativecommons.org/ns#"
   xmlns:rdf="http://www.w3.org/1999/02/22-rdf-syntax-ns#"
   xmlns:svg="http://www.w3.org/2000/svg"
   xmlns="http://www.w3.org/2000/svg"
   width="16.036167"
   version="1.1"
   id="svg7384"
   height="16">
  <metadata
     id="metadata90">
    <rdf:RDF>
      <cc:Work
         rdf:about="">
        <dc:format>image/svg+xml</dc:format>
        <dc:type
           rdf:resource="http://purl.org/dc/dcmitype/StillImage" />
        <dc:title>elementary Symbolic Icon Theme</dc:title>
      </cc:Work>
    </rdf:RDF>
  </metadata>
  <title
     id="title9167">elementary Symbolic Icon Theme</title>
  <defs
     id="defs7386">
    <linearGradient
       id="linearGradient4526"
       osb:paint="solid">
      <stop
         style="stop-color:#ffffff;stop-opacity:1;"
         offset="0"
         id="stop4528" />
    </linearGradient>
  </defs>
  <g
     transform="translate(-433.00039,12)"
     style="display:inline"
     label="status"
     id="layer9" />
  <g
     transform="translate(-433.00039,12)"
     style="display:inline"
     id="layer10" />
  <g
     transform="translate(-433.00039,12)"
     style="display:inline"
     id="layer13" />
  <g
     transform="translate(-433.00039,12)"
     id="layer14" />
  <g
     transform="translate(-433.00039,12)"
     style="display:inline"
     id="layer15" />
  <g
     transform="translate(-433.00039,12)"
     style="display:inline"
     id="g71291" />
  <g
     transform="translate(-701.76365,603.60207)"
     style="display:inline"
     id="layer9-2-2" />
  <g
     transform="translate(-701.76365,603.60207)"
     style="display:inline"
     id="layer10-0-6" />
  <g
     transform="translate(-701.76365,603.60207)"
     id="layer11-5" />
  <g
     transform="translate(-701.76365,603.60207)"
     id="layer14-7-9" />
  <g
     transform="translate(-701.76365,603.60207)"
     style="display:inline"
     id="layer15-5-2" />
  <g
     transform="translate(-701.76365,603.60207)"
     style="display:inline"
     id="g71291-8-4" />
  <g
     transform="translate(-701.76365,603.60207)"
     style="display:inline"
     id="g4953-5" />
  <g
     transform="translate(-701.76365,603.60207)"
     style="display:inline"
     id="layer12-4" />
  <g
     transform="translate(-288.02844,406.39676)"
     style="display:inline"
     id="layer10-2" />
  <g
     transform="translate(-288.02844,406.39676)"
     id="layer11" />
  <g
     transform="translate(-288.02844,406.39676)"
     style="display:inline"
     id="layer13-0" />
  <g
     transform="translate(-288.02844,406.39676)"
     id="layer14-3" />
  <g
     transform="translate(-288.02844,406.39676)"
     style="display:inline"
     id="layer15-1" />
  <g
     transform="translate(-288.02844,406.39676)"
     style="display:inline"
     id="g71291-5" />
  <g
     transform="translate(-288.02844,406.39676)"
     style="display:inline"
     id="g4953" />
  <g
     transform="translate(-288.02844,406.39676)"
     style="display:inline"
     id="layer12" />
  <rect
     transform="matrix(0.70710678,0.70710678,0.70710678,-0.70710678,0,0)"
     ry="0.87651831"
     rx="0.87651831"
     y="-4.1452508"
     x="11.4111"
     height="6.876286"
     width="6.876286"
     id="rect4164"
     style="color:#fbc02d;clip-rule:nonzero;display:inline;overflow:visible;visibility:visible;opacity:1;isolation:auto;mix-blend-mode:normal;color-interpolation:sRGB;color-interpolation-filters:linearRGB;solid-color:#000000;solid-opacity:1;fill:#3585dd;fill-opacity:1;fill-rule:nonzero;stroke:none;stroke-width:1;stroke-linecap:butt;stroke-linejoin:miter;stroke-miterlimit:4;stroke-dasharray:none;stroke-dashoffset:0;stroke-opacity:1;marker:none;color-rendering:auto;image-rendering:auto;shape-rendering:auto;text-rendering:auto;enable-background:accumulate" />
  <path
     id="rect4164-8-7-9-8"
     d="M 10 6.5 C 9.7759452 6.5 9.5525418 6.5861301 9.3808594 6.7578125 L 6.9140625 9.2226562 L 8.6035156 10.912109 C 9.3869899 11.695584 10.648166 11.695584 11.431641 10.912109 L 13.101562 9.2421875 L 10.619141 6.7578125 C 10.447458 6.5861301 10.224055 6.5 10 6.5 z "
     style="color:#fbc02d;clip-rule:nonzero;display:inline;overflow:visible;visibility:visible;opacity:0.1;isolation:auto;mix-blend-mode:normal;color-interpolation:sRGB;color-interpolation-filters:linearRGB;solid-color:#000000;solid-opacity:1;fill:#000000;fill-opacity:1;fill-rule:nonzero;stroke:none;stroke-width:1;stroke-linecap:butt;stroke-linejoin:miter;stroke-miterlimit:4;stroke-dasharray:none;stroke-dashoffset:0;stroke-opacity:1;marker:none;color-rendering:auto;image-rendering:auto;shape-rendering:auto;text-rendering:auto;enable-background:accumulate" />
  <path
     id="rect4164-8-7-0"
     d="M 10 6.5 C 9.7759452 6.5 9.5525418 6.5861301 9.3808594 6.7578125 L 7.5195312 8.6210938 L 8.9570312 10.058594 C 9.544637 10.646199 10.490519 10.646199 11.078125 10.058594 L 12.5 8.6386719 L 10.619141 6.7578125 C 10.447458 6.5861301 10.224055 6.5 10 6.5 z "
     style="color:#fbc02d;clip-rule:nonzero;display:inline;overflow:visible;visibility:visible;opacity:0.1;isolation:auto;mix-blend-mode:normal;color-interpolation:sRGB;color-interpolation-filters:linearRGB;solid-color:#000000;solid-opacity:1;fill:#000000;fill-opacity:1;fill-rule:nonzero;stroke:none;stroke-width:1;stroke-linecap:butt;stroke-linejoin:miter;stroke-miterlimit:4;stroke-dasharray:none;stroke-dashoffset:0;stroke-opacity:1;marker:none;color-rendering:auto;image-rendering:auto;shape-rendering:auto;text-rendering:auto;enable-background:accumulate" />
  <rect
     transform="matrix(0.70710678,0.70710678,0.70710678,-0.70710678,0,0)"
     ry="0.87651831"
     rx="0.87651831"
     y="0.11011919"
     x="7.1811862"
     height="6.876286"
     width="6.876286"
     id="rect4164-0"
     style="color:#fbc02d;clip-rule:nonzero;display:inline;overflow:visible;visibility:visible;opacity:1;isolation:auto;mix-blend-mode:normal;color-interpolation:sRGB;color-interpolation-filters:linearRGB;solid-color:#000000;solid-opacity:1;fill:#844cc8;fill-opacity:1;fill-rule:nonzero;stroke:none;stroke-width:1;stroke-linecap:butt;stroke-linejoin:miter;stroke-miterlimit:4;stroke-dasharray:none;stroke-dashoffset:0;stroke-opacity:1;marker:none;color-rendering:auto;image-rendering:auto;shape-rendering:auto;text-rendering:auto;enable-background:accumulate" />
  <path
     id="rect4164-8-7-9"
     d="M 7.7421875 2.4140625 L 5.7753906 4.3808594 C 5.4320258 4.7242242 5.4320258 5.2757758 5.7753906 5.6191406 L 8.1484375 7.9921875 L 5.7578125 10.380859 C 5.4144477 10.724224 5.4144477 11.275776 5.7578125 11.619141 L 6.7324219 12.59375 L 10.912109 8.4140625 C 11.695584 7.6305882 11.695584 6.3694118 10.912109 5.5859375 L 7.7421875 2.4140625 z "
     style="color:#fbc02d;clip-rule:nonzero;display:inline;overflow:visible;visibility:visible;opacity:0.1;isolation:auto;mix-blend-mode:normal;color-interpolation:sRGB;color-interpolation-filters:linearRGB;solid-color:#000000;solid-opacity:1;fill:#000000;fill-opacity:1;fill-rule:nonzero;stroke:none;stroke-width:1;stroke-linecap:butt;stroke-linejoin:miter;stroke-miterlimit:4;stroke-dasharray:none;stroke-dashoffset:0;stroke-opacity:1;marker:none;color-rendering:auto;image-rendering:auto;shape-rendering:auto;text-rendering:auto;enable-background:accumulate" />
  <path
     id="rect4164-8-7"
     d="M 7.1367188 3.0195312 L 5.7753906 4.3808594 C 5.4320258 4.7242242 5.4320258 5.2757758 5.7753906 5.6191406 L 8.1484375 7.9921875 L 5.7578125 10.380859 C 5.4144477 10.724224 5.4144477 11.275776 5.7578125 11.619141 L 6.1289062 11.990234 L 10.058594 8.0605469 C 10.646199 7.4729411 10.646199 6.5270589 10.058594 5.9394531 L 7.1367188 3.0195312 z "
     style="color:#fbc02d;clip-rule:nonzero;display:inline;overflow:visible;visibility:visible;opacity:0.1;isolation:auto;mix-blend-mode:normal;color-interpolation:sRGB;color-interpolation-filters:linearRGB;solid-color:#000000;solid-opacity:1;fill:#000000;fill-opacity:1;fill-rule:nonzero;stroke:none;stroke-width:1;stroke-linecap:butt;stroke-linejoin:miter;stroke-miterlimit:4;stroke-dasharray:none;stroke-dashoffset:0;stroke-opacity:1;marker:none;color-rendering:auto;image-rendering:auto;shape-rendering:auto;text-rendering:auto;enable-background:accumulate" />
  <rect
     transform="matrix(0.70710678,-0.70710678,0.70710678,0.70710678,0,0)"
     ry="0.87651831"
     rx="0.87651831"
     y="5.0471387"
     x="-4.8523564"
     height="6.876286"
     width="6.876286"
     id="rect4164-8"
     style="color:#fbc02d;clip-rule:nonzero;display:inline;overflow:visible;visibility:visible;opacity:1;isolation:auto;mix-blend-mode:normal;color-interpolation:sRGB;color-interpolation-filters:linearRGB;solid-color:#000000;solid-opacity:1;fill:#fbc02d;fill-opacity:1;fill-rule:nonzero;stroke:none;stroke-width:1;stroke-linecap:butt;stroke-linejoin:miter;stroke-miterlimit:4;stroke-dasharray:none;stroke-dashoffset:0;stroke-opacity:1;marker:none;color-rendering:auto;image-rendering:auto;shape-rendering:auto;text-rendering:auto;enable-background:accumulate" />
</svg>

<?xml version="1.0" encoding="UTF-8"?>
<svg id="svg7384" width="16.036" height="16" version="1.1" xmlns="http://www.w3.org/2000/svg" xmlns:cc="http://creativecommons.org/ns#" xmlns:dc="http://purl.org/dc/elements/1.1/" xmlns:osb="http://www.openswatchbook.org/uri/2009/osb" xmlns:rdf="http://www.w3.org/1999/02/22-rdf-syntax-ns#">
 <metadata id="metadata90">
  <rdf:RDF>
   <cc:Work rdf:about="">
    <dc:format>image/svg+xml</dc:format>
    <dc:type rdf:resource="http://purl.org/dc/dcmitype/StillImage"/>
    <dc:title>elementary Symbolic Icon Theme</dc:title>
   </cc:Work>
  </rdf:RDF>
 </metadata>
 <title id="title9167">elementary Symbolic Icon Theme</title>
 <rect id="rect4164" transform="matrix(.70711 .70711 .70711 -.70711 0 0)" x="11.411" y="-4.1453" width="6.8763" height="6.8763" rx=".87652" ry=".87652" style="color-rendering:auto;color:#fbc02d;fill:#3585dd;image-rendering:auto;isolation:auto;mix-blend-mode:normal;shape-rendering:auto;solid-color:#000000"/>
 <path id="rect4164-8-7-9-8" d="m10 6.5c-0.22405 0-0.44746 0.08613-0.61914 0.25781l-2.4668 2.4648 1.6895 1.6895c0.78347 0.78348 2.0447 0.78348 2.8281 0l1.6699-1.6699-2.4824-2.4844c-0.17168-0.17168-0.39509-0.25781-0.61914-0.25781z" style="color-rendering:auto;color:#fbc02d;image-rendering:auto;isolation:auto;mix-blend-mode:normal;opacity:.1;shape-rendering:auto;solid-color:#000000"/>
 <path id="rect4164-8-7-0" d="m10 6.5c-0.22405 0-0.44746 0.08613-0.61914 0.25781l-1.8613 1.8633 1.4375 1.4375c0.58761 0.5876 1.5335 0.5876 2.1211 0l1.4219-1.4199-1.8809-1.8809c-0.17168-0.17168-0.39509-0.25781-0.61914-0.25781z" style="color-rendering:auto;color:#fbc02d;image-rendering:auto;isolation:auto;mix-blend-mode:normal;opacity:.1;shape-rendering:auto;solid-color:#000000"/>
 <rect id="rect4164-0" transform="matrix(.70711 .70711 .70711 -.70711 0 0)" x="7.1812" y=".11012" width="6.8763" height="6.8763" rx=".87652" ry=".87652" style="color-rendering:auto;color:#fbc02d;fill:#844cc8;image-rendering:auto;isolation:auto;mix-blend-mode:normal;shape-rendering:auto;solid-color:#000000"/>
 <path id="rect4164-8-7-9" d="m7.7422 2.4141-1.9668 1.9668c-0.34336 0.34336-0.34336 0.89492 0 1.2383l2.373 2.373-2.3906 2.3887c-0.34336 0.34336-0.34336 0.89492 0 1.2383l0.97461 0.97461 4.1797-4.1797c0.78348-0.78347 0.78348-2.0447 0-2.8281l-3.1699-3.1719z" style="color-rendering:auto;color:#fbc02d;image-rendering:auto;isolation:auto;mix-blend-mode:normal;opacity:.1;shape-rendering:auto;solid-color:#000000"/>
 <path id="rect4164-8-7" d="m7.1367 3.0195-1.3613 1.3613c-0.34336 0.34336-0.34336 0.89492 0 1.2383l2.373 2.373-2.3906 2.3887c-0.34336 0.34336-0.34336 0.89492 0 1.2383l0.37109 0.37109 3.9297-3.9297c0.5876-0.58761 0.5876-1.5335 0-2.1211l-2.9219-2.9199z" style="color-rendering:auto;color:#fbc02d;image-rendering:auto;isolation:auto;mix-blend-mode:normal;opacity:.1;shape-rendering:auto;solid-color:#000000"/>
 <rect id="rect4164-8" transform="matrix(.70711 -.70711 .70711 .70711 0 0)" x="-4.8524" y="5.0471" width="6.8763" height="6.8763" rx=".87652" ry=".87652" style="color-rendering:auto;color:#fbc02d;fill:#fbc02d;image-rendering:auto;isolation:auto;mix-blend-mode:normal;shape-rendering:auto;solid-color:#000000"/>
</svg>
